packages/tokens/icons/update/size16Px.svg

<svg viewBox="0 0 16 16" fill="none" xmlns="http://www.w3.org/2000/svg" width="1em" height="1em"><path d="M2.75664 9.71498L3.23201 9.55998L2.75664 9.71498ZM6.13181 3.05853L6.61213 3.19742C6.64922 3.06918 6.63348 2.93143 6.56842 2.81485C6.50335 2.69828 6.39438 2.61256 6.26576 2.5768L6.13181 3.05853ZM4.4411 2.06945C4.17505 1.99548 3.8994 2.15118 3.82543 2.41723C3.75145 2.68328 3.90716 2.95893 4.17321 3.0329L4.4411 2.06945ZM5.13425 4.7083C5.05754 4.97357 5.2104 5.2508 5.47567 5.32751C5.74095 5.40422 6.01818 5.25136 6.09489 4.98609L5.13425 4.7083ZM2.7014 6.58909L3.18172 6.728L2.7014 6.58909ZM6.32385 13.7565C6.58912 13.8332 6.86635 13.6803 6.94306 13.415C7.01977 13.1498 6.86691 12.8725 6.60163 12.7958L6.32385 13.7565ZM6.26576 2.5768L4.4411 2.06945L4.17321 3.0329L5.99787 3.54025L6.26576 2.5768ZM5.65149 2.91963L5.13425 4.7083L6.09489 4.98609L6.61213 3.19742L5.65149 2.91963ZM3.23201 9.55998C2.93036 8.63488 2.91526 7.64938 3.18172 6.728L2.22108 6.45019C1.89885 7.56446 1.91762 8.75474 2.28128 9.86999L3.23201 9.55998ZM3.18172 6.728C3.59767 5.28968 4.83999 3.99646 6.28407 3.53478L5.97955 2.58227C4.21495 3.14642 2.72874 4.69475 2.22108 6.45019L3.18172 6.728ZM6.60163 12.7958C5.02212 12.3391 3.7349 11.1022 3.23201 9.55998L2.28128 9.86999C2.88843 11.732 4.43096 13.2091 6.32385 13.7565L6.60163 12.7958Z" fill="currentColor"/><path d="M13.2431 6.2855L12.7677 6.44051L13.2431 6.2855ZM9.86794 12.942L9.38762 12.8031C9.35054 12.9313 9.36628 13.0691 9.43134 13.1856C9.4964 13.3022 9.60538 13.3879 9.734 13.4237L9.86794 12.942ZM11.5587 13.931C11.8247 14.005 12.1004 13.8493 12.1743 13.5833C12.2483 13.3172 12.0926 13.0416 11.8265 12.9676L11.5587 13.931ZM10.8655 11.2922C10.9422 11.0269 10.7894 10.7497 10.5241 10.673C10.2588 10.5963 9.98158 10.7491 9.90486 11.0144L10.8655 11.2922ZM13.2984 9.4114L12.818 9.27249L13.2984 9.4114ZM9.67591 2.24403C9.41064 2.16732 9.1334 2.32018 9.0567 2.58546C8.97999 2.85073 9.13285 3.12796 9.39812 3.20467L9.67591 2.24403ZM9.734 13.4237L11.5587 13.931L11.8265 12.9676L10.0019 12.4602L9.734 13.4237ZM10.3483 13.0809L10.8655 11.2922L9.90486 11.0144L9.38762 12.8031L10.3483 13.0809ZM12.7677 6.44051C13.0694 7.36561 13.0845 8.3511 12.818 9.27249L13.7787 9.5503C14.1009 8.43603 14.0821 7.24575 13.7185 6.1305L12.7677 6.44051ZM12.818 9.27249C12.4021 10.7108 11.1598 12.004 9.71568 12.4657L10.0202 13.4182C11.7848 12.8541 13.271 11.3057 13.7787 9.5503L12.818 9.27249ZM9.39812 3.20467C10.9776 3.66141 12.2649 4.89827 12.7677 6.44051L13.7185 6.1305C13.1113 4.26852 11.5688 2.79139 9.67591 2.24403L9.39812 3.20467Z" fill="currentColor"/><path d="M7.52106 5.5V8.5H9.58031" stroke="currentColor" stroke-miterlimit="10" stroke-linecap="round" stroke-linejoin="round"/></svg>

<svg xmlns="http://www.w3.org/2000/svg" fill="none" viewBox="0 0 16 16" width="1em" height="1em"><path fill="currentColor" d="m2.757 9.715.475-.155-.475.155Zm3.375-6.656.48.138a.5.5 0 0 0-.346-.62l-.134.482Zm-1.69-.99a.5.5 0 0 0-.269.964l.268-.964Zm.692 2.64a.5.5 0 1 0 .96.277l-.96-.278Zm-2.433 1.88.48.139-.48-.139Zm3.623 7.168a.5.5 0 0 0 .278-.961l-.278.96Zm-.058-11.18L4.44 2.069l-.268.964 1.825.507.268-.963Zm-.615.343-.517 1.788.96.278.518-1.789-.96-.277ZM3.232 9.56a4.815 4.815 0 0 1-.05-2.832l-.96-.278a5.815 5.815 0 0 0 .06 3.42l.95-.31Zm-.05-2.832C3.598 5.29 4.84 3.996 6.284 3.535l-.304-.953c-1.765.564-3.251 2.113-3.76 3.868l.96.278Zm3.42 6.068c-1.58-.457-2.867-1.694-3.37-3.236l-.95.31c.606 1.862 2.149 3.34 4.042 3.887l.278-.961Zm6.641-6.511-.475.156.475-.155Zm-3.375 6.657-.48-.139a.5.5 0 0 0 .346.62l.134-.481Zm1.69.989a.5.5 0 1 0 .268-.963l-.267.963Zm-.692-2.639a.5.5 0 1 0-.961-.278l.96.278Zm2.432-1.88-.48-.14.48.14ZM9.676 2.243a.5.5 0 1 0-.278.96l.278-.96Zm.058 11.18 1.825.507.268-.963-1.825-.508-.268.964Zm.614-.343.518-1.789-.961-.278-.517 1.79.96.277Zm2.42-6.64a4.82 4.82 0 0 1 .05 2.831l.96.278a5.816 5.816 0 0 0-.06-3.42l-.95.31Zm.05 2.831c-.416 1.439-1.658 2.732-3.102 3.194l.304.952c1.765-.564 3.251-2.112 3.759-3.868l-.961-.278Zm-3.42-6.067c1.58.456 2.867 1.693 3.37 3.236l.95-.31c-.607-1.862-2.15-3.34-4.042-3.887l-.278.96Z"/><path stroke="currentColor" stroke-linecap="round" stroke-linejoin="round" stroke-miterlimit="10" d="M7.521 5.5v3h2.06"/></svg>
